images/elem_earth_or_dark.svg

<svg height="560" viewBox="0 0 560 560" width="560" xmlns="http://www.w3.org/2000/svg">
	<path
		d="m280 418.41v-2.24c-24.79-1.97-45.23-11.41-59.99-16.64-1.5 18 4.5 41.92 9.5 58.42s-27 21.08-31 18.08-18.61-83.75 18.5-133c15.72-20.86 38.9-40.84 62.99-59.85v-27.75c-7.87 4.65-16.34 9.51-25.49 14.6-68.44 38.11-80.63 85.6-82.66 104.82-.42 4-4.89 6.18-8.27 3.99-24.28-15.78-85.57-80.68-11.57-162.81 37.73-41.87 81.41-50.73 127.99-57.28v-17.15-12.59-113.01c-145.8 0-264 118.2-264 264s118.2 264 264 264v-113z"
		fill="#85a93d" />
	<path
		d="m217.01 343.03c-37.11 49.25-22.5 130-18.5 133s36-1.58 31-18.08-11-40.42-9.5-58.42c14.76 5.23 35.2 14.67 59.99 16.64v-132.99c-24.09 19.01-47.27 38.99-62.99 59.85z"
		fill="#fff" />
	<path
		d="m152.01 216.03c-74 82.13-12.71 147.03 11.57 162.81 3.38 2.19 7.85.01 8.27-3.99 2.03-19.22 14.22-66.71 82.66-104.82 9.15-5.09 17.62-9.95 25.49-14.6v-96.68c-46.58 6.55-90.26 15.41-127.99 57.28z"
		fill="#fff" />
	<g fill="#1d2a33">
		<path
			d="m544 280c0-145.8-118.2-264-264-264v113s.01 0 .01.01c14.51-4.42 29.89-6.79 45.82-6.79 87 0 157.78 70.78 157.78 157.79 0 87-70.78 157.78-157.78 157.78-15.93 0-31.31-2.37-45.82-6.79h-.01v113c145.8 0 264-118.2 264-264z" />
		<path
			d="m297.51 411.3c48.75-23.62 82.45-73.59 82.45-131.29 0-57.71-33.7-107.69-82.45-131.3-5.64-2.74-11.49-5.12-17.51-7.11v276.81c6.02-1.99 11.87-4.39 17.51-7.11z" />
		<path
			d="m322.64 149.43c73.09 1.2 131.97 59.19 131.97 130.58 0 71.37-58.87 129.36-131.96 130.56-1.74 1.18-3.49 2.34-5.28 3.45-5.62 3.5-11.48 6.66-17.54 9.45 8.44 1.52 17.13 2.32 26 2.32 80.38 0 145.78-65.4 145.78-145.78 0-80.39-65.4-145.79-145.78-145.79-8.87 0-17.56.79-26 2.32 6.06 2.78 11.91 5.93 17.53 9.43 1.79 1.12 3.54 2.28 5.28 3.46z" />
	</g>
	<path
		d="m560 280c0 37.79-7.41 74.46-22.01 108.99-14.1 33.35-34.29 63.29-60 89s-55.65 45.9-89 60c-34.53 14.6-71.2 22.01-108.99 22.01s-74.46-7.41-108.99-22.01c-33.35-14.1-63.29-34.29-89-60s-45.9-55.65-60-89c-14.61-34.53-22.01-71.2-22.01-108.99s7.4-74.46 22.01-108.99c14.1-33.35 34.29-63.29 60-89s55.65-45.9 89-60c34.53-14.61 71.2-22.01 108.99-22.01s74.46 7.4 108.99 22.01c33.35 14.1 63.29 34.29 89 60s45.9 55.65 60 89c14.6 34.53 22.01 71.2 22.01 108.99zm-16 0c0-145.8-118.2-264-264-264s-264 118.2-264 264 118.2 264 264 264 264-118.2 264-264z"
		fill="#fff" fill-rule="evenodd" />
	<path
		d="m280 129s.01 0 .01.01c14.51-4.42 29.89-6.79 45.82-6.79 87 0 157.78 70.78 157.78 157.79 0 87-70.78 157.78-157.78 157.78-15.93 0-31.31-2.37-45.82-6.79h-.01v-12.59c6.02-1.99 11.87-4.39 17.51-7.11 48.75-23.62 82.45-73.59 82.45-131.29 0-57.71-33.7-107.69-82.45-131.3-5.64-2.74-11.49-5.12-17.51-7.11zm19.83 7.54c6.06 2.78 11.91 5.93 17.53 9.43 1.79 1.12 3.54 2.28 5.28 3.46 73.09 1.2 131.97 59.19 131.97 130.58 0 71.37-58.87 129.36-131.96 130.56-1.74 1.18-3.49 2.34-5.28 3.45-5.62 3.5-11.48 6.66-17.54 9.45 8.44 1.52 17.13 2.32 26 2.32 80.38 0 145.78-65.4 145.78-145.78 0-80.39-65.4-145.79-145.78-145.79-8.87 0-17.56.79-26 2.32z"
		fill="#fff" fill-rule="evenodd" />
</svg>

<svg version="1.2" baseProfile="tiny-ps" xmlns="http://www.w3.org/2000/svg" viewBox="0 0 560 560" width="560" height="560">
	<title>Layer 1</title>
	<style>
		tspan { white-space:pre }
		.shp0 { fill: #85a93d } 
		.shp1 { fill: #ffffff } 
		.shp2 { fill: #1d2a33 } 
	</style>
	<g id="Layer 1">
		<g id="&lt;Group&gt;">
			<g id="&lt;Group&gt;">
				<g id="&lt;Group&gt;">
					<path id="&lt;Path&gt;" class="shp0" d="M280 418.41L280 416.17C255.21 414.2 234.77 404.76 220.01 399.53C218.51 417.53 224.51 441.45 229.51 457.95C234.51 474.45 202.51 479.03 198.51 476.03C194.51 473.03 179.9 392.28 217.01 343.03C232.73 322.17 255.91 302.19 280 283.18L280 255.43C272.13 260.08 263.66 264.94 254.51 270.03C186.07 308.14 173.88 355.63 171.85 374.85C171.43 378.85 166.96 381.03 163.58 378.84C139.3 363.06 78.01 298.16 152.01 216.03C189.74 174.16 233.42 165.3 280 158.75L280 141.6L280 129.01L280 16C134.2 16 16 134.2 16 280C16 425.8 134.2 544 280 544L280 431L280 418.41Z" />
					<path id="&lt;Path&gt;" class="shp1" d="M217.01 343.03C179.9 392.28 194.51 473.03 198.51 476.03C202.51 479.03 234.51 474.45 229.51 457.95C224.51 441.45 218.51 417.53 220.01 399.53C234.77 404.76 255.21 414.2 280 416.17L280 283.18C255.91 302.19 232.73 322.17 217.01 343.03Z" />
					<path id="&lt;Path&gt;" class="shp1" d="M152.01 216.03C78.01 298.16 139.3 363.06 163.58 378.84C166.96 381.03 171.43 378.85 171.85 374.85C173.88 355.63 186.07 308.14 254.51 270.03C263.66 264.94 272.13 260.08 280 255.43L280 158.75C233.42 165.3 189.74 174.16 152.01 216.03Z" />
				</g>
			</g>
			<g id="&lt;Group&gt;">
				<path id="&lt;Path&gt;" class="shp2" d="M544 280C544 134.2 425.8 16 280 16L280 129C280 129 280.01 129 280.01 129.01C294.52 124.59 309.9 122.22 325.83 122.22C412.83 122.22 483.61 193 483.61 280.01C483.61 367.01 412.83 437.79 325.83 437.79C309.9 437.79 294.52 435.42 280.01 431C280.01 431 280 431 280 431L280 431L280 544C425.8 544 544 425.8 544 280Z" />
				<path id="&lt;Path&gt;" class="shp2" d="M297.51 411.3C346.26 387.68 379.96 337.71 379.96 280.01C379.96 222.3 346.26 172.32 297.51 148.71C291.87 145.97 286.02 143.59 280 141.6C280 141.6 280 141.6 280 141.6L280 141.6L280 418.41C280 418.41 280 418.41 280 418.41C286.02 416.42 291.87 414.02 297.51 411.3Z" />
				<path id="&lt;Path&gt;" class="shp2" d="M322.64 149.43C395.73 150.63 454.61 208.62 454.61 280.01C454.61 351.38 395.74 409.37 322.65 410.57C320.91 411.75 319.16 412.91 317.37 414.02C311.75 417.52 305.89 420.68 299.83 423.47C308.27 424.99 316.96 425.79 325.83 425.79C406.21 425.79 471.61 360.39 471.61 280.01C471.61 199.62 406.21 134.22 325.83 134.22C316.96 134.22 308.27 135.01 299.83 136.54C305.89 139.32 311.74 142.47 317.36 145.97C319.15 147.09 320.9 148.25 322.64 149.43Z" />
				<path id="&lt;Compound Path&gt;" fill-rule="evenodd" class="shp1" d="M560 280C560 317.79 552.59 354.46 537.99 388.99C523.89 422.34 503.7 452.28 477.99 477.99C452.28 503.7 422.34 523.89 388.99 537.99C354.46 552.59 317.79 560 280 560C242.21 560 205.54 552.59 171.01 537.99C137.66 523.89 107.72 503.7 82.01 477.99C56.3 452.28 36.11 422.34 22.01 388.99C7.4 354.46 0 317.79 0 280C0 242.21 7.4 205.54 22.01 171.01C36.11 137.66 56.3 107.72 82.01 82.01C107.72 56.3 137.66 36.11 171.01 22.01C205.54 7.4 242.21 0 280 0C317.79 0 354.46 7.4 388.99 22.01C422.34 36.11 452.28 56.3 477.99 82.01C503.7 107.72 523.89 137.66 537.99 171.01C552.59 205.54 560 242.21 560 280ZM544 280C544 134.2 425.8 16 280 16C134.2 16 16 134.2 16 280C16 425.8 134.2 544 280 544C425.8 544 544 425.8 544 280Z" />
				<path id="&lt;Compound Path&gt;" fill-rule="evenodd" class="shp1" d="M280 129C280 129 280.01 129 280.01 129.01C294.52 124.59 309.9 122.22 325.83 122.22C412.83 122.22 483.61 193 483.61 280.01C483.61 367.01 412.83 437.79 325.83 437.79C309.9 437.79 294.52 435.42 280.01 431C280.01 431 280 431 280 431L280 418.41C280 418.41 280 418.41 280 418.41C286.02 416.42 291.87 414.02 297.51 411.3C346.26 387.68 379.96 337.71 379.96 280.01C379.96 222.3 346.26 172.32 297.51 148.71C291.87 145.97 286.02 143.59 280 141.6C280 141.6 280 141.6 280 141.6L280 129ZM299.83 136.54C305.89 139.32 311.74 142.47 317.36 145.97C319.15 147.09 320.9 148.25 322.64 149.43C395.73 150.63 454.61 208.62 454.61 280.01C454.61 351.38 395.74 409.37 322.65 410.57C320.91 411.75 319.16 412.91 317.37 414.02C311.75 417.52 305.89 420.68 299.83 423.47C308.27 424.99 316.96 425.79 325.83 425.79C406.21 425.79 471.61 360.39 471.61 280.01C471.61 199.62 406.21 134.22 325.83 134.22C316.96 134.22 308.27 135.01 299.83 136.54Z" />
			</g>
		</g>
	</g>
</svg>
